X:378
T: Wannian baishu qianniansong
N: C1880
O: China, Guangdong Lianxian
S: II, 347]
R: Xiaodiao. Madeng diao]
M: 2/4
L: 1/16
K: G
g2gae2g2 | g2g2g2ge | a3bage2 | g4e4 |
a2a2a2ga | g2a2g4 |
g2e2d4 | c3dg2g2 | ede2d4

